packages/ui-icons/svg/Solid/wordpress.svg

<svg viewBox="0 0 1920 1920" version="1.1" xmlns="http://www.w3.org/2000/svg">
    <path d="M1243.56141,1811.41082 L1005.25553,1175.21318 L732.389647,1813.33082 C629.161412,1810.73318 569.302588,1748.50259 569.302588,1748.50259 L162.601412,471.589647 C162.601412,471.589647 146.563765,408.229647 55.7590588,408.229647 L-0.0338823529,408.229647 L37.0108235,312.003765 L556.766118,312.003765 L556.766118,408.229647 C556.766118,408.229647 505.152,449.792 517.236706,507.392 C529.434353,564.992 737.472,1394.65788 737.472,1394.65788 L938.055529,950.686118 L844.992,657.039059 C809.302588,566.799059 779.937882,479.834353 756.559059,456.794353 C723.580235,420.992 663.495529,408.229647 663.495529,408.229647 L663.495529,312.003765 L1303.872,312.003765 L1303.872,408.229647 L1197.93318,408.229647 C1197.93318,408.229647 1142.14024,419.410824 1137.28376,501.406118 C1136.26729,517.895529 1145.86729,575.269647 1145.86729,575.269647 L1394.33788,1392.17318 C1394.33788,1392.17318 1649.58494,923.467294 1653.19906,821.368471 C1656.92612,719.495529 1617.39671,552.681412 1505.92376,486.046118 C1327.58965,378.639059 1372.65318,164.954353 1510.10259,89.3967059 C1568.832,57.2084706 1621.12376,55.9661176 1680.64376,55.9661176 C1890.48847,55.9661176 1914.09318,293.820235 1914.09318,293.820235 C1927.98494,375.815529 1918.15906,515.297882 1878.62965,638.290824 C1775.40141,958.140235 1519.92847,1533.57553 1420.992,1752.68141 C1341.48141,1831.62729 1243.56141,1811.41082 1243.56141,1811.41082" stroke="none" stroke-width="1" fill-rule="evenodd"/>
</svg>

<svg viewBox="0 0 1920 1920" xmlns="http://www.w3.org/2000/svg">
    <path d="m1243.561 1811.41-238.305-636.197-272.866 638.118c-103.229-2.598-163.087-64.828-163.087-64.828L162.6 471.59s-16.037-63.36-106.842-63.36H-.034l37.045-96.226h519.755v96.226s-51.614 41.562-39.53 99.162c12.198 57.6 220.236 887.266 220.236 887.266l200.584-443.972-93.064-293.647c-35.69-90.24-65.054-177.205-88.433-200.245-32.979-35.802-93.063-48.564-93.063-48.564v-96.226h640.376v96.226h-105.939s-55.793 11.18-60.65 93.176c-1.016 16.49 8.584 73.864 8.584 73.864l248.47 816.903s255.248-468.706 258.862-570.805c3.727-101.872-35.802-268.687-147.275-335.322-178.334-107.407-133.27-321.092 4.179-396.65 58.729-32.188 111.02-33.43 170.54-33.43 209.845 0 233.45 237.854 233.45 237.854 13.892 81.996 4.066 221.478-35.463 344.47-103.229 319.85-358.702 895.286-457.638 1114.391-79.51 78.946-177.43 58.73-177.43 58.73" fill-rule="evenodd"/>
</svg>
